X:1
T:Boléro (theme)
C:Maurice Ravel
M:3/4
L:1/8
Q:1/4=76
K:C
% A section (bars 1–9)
G2 G2 GA | G2 FE DC | z2 E2 G2 | A4 z2 |
G3 A GF | ED CE GE | FG AB c2 | G6 |
G2 AB cd |
% B section (bars 10–18)
c3 B A2 | GB cA Gc | d3 c B2 | AG BA cB |
A2 GF E2 | DE FG AB | cB AG F2 | ED CE D2 |
C6 |]
